X:1
T:Title
%%score { 1 | ( 2 3 ) }
L:1/8
M:4/4
K:F
V:1 treble nm="Grand Piano"
V:2 bass 
V:3 bass 
V:1
 z4 z2[Q:1/4=108] C>C | F2 F2 F2 F2 | F3 G [CFA]2 [CFA]>[CGB] | [CAc]2 [CAc]2 [CFA]2 [A,F]2 | %4
 [CEG]6 C>C | F2 F2 F2 F2 | F3 G [CFA]2 [CFA]>[CGB] | [CAc]2 [CAc]2 [CFA]2 [B,EG]2 | %8
[M:3/4] [A,F]6 |[M:1/4] [CFA]>[CGB] |[M:4/4] [CAc]2 [CAc]4 [CFA]>[CGB] | %11
 [CAc]2 [CAc]4 [CFA]>[CGB] | [Ac]3 [Ac] [Bd][Ac][Ac]A | [CEG]6 [CFA]>[CGB] | %14
 [FAc]2 [FAc]2 [FAc]2 [CFA]2 |[M:5/4] [DFB]2 [Fd]6 [Fd]>[Fd] |[M:4/4] [Fc]2 [FA]2 [EA]2 G2 | %17
[M:3/4] F6 |] %18
V:2
 z4 z2 [F,A,]>[F,A,] | [F,A,C]2 [F,A,C]2 [F,A,C]2 [F,A,C]2 | A,4 z4 | F,2 F,2 F,2 F,2 | %4
 C,6 [F,A,]>[F,A,] | [F,A,C]2 [F,A,C]2 [F,A,C]2 [F,A,C]2 | A,4 z4 | F,2 F,2 C,2 C,2 |[M:3/4] F,6 | %9
[M:1/4] F,>F, |[M:4/4] F,2 F,4 F,>F, | F,2 F,4 F,>F, | [F,F]3 [F,F] [F,F]2 z F | C,6 F,>F, | %14
 F,2 F,2 F,2 F,2 |[M:5/4] B,,2 [B,,B,]6 [B,,B,]>[B,,B,] |[M:4/4] [C,A,]2 [C,C]2 [C,C]2 [C,B,C]2 | %17
[M:3/4] [F,A,C]6 |] %18
V:3
 x8 | x8 | [F,C]3- [F,B,C] F,2 F,>F, | x8 | x8 | x8 | [F,C]3- [F,B,C] F,2 F,>F, | x8 |[M:3/4] x6 | %9
[M:1/4] x2 |[M:4/4] x8 | x8 | z4 z2 [F,C]2 | x8 | x8 |[M:5/4] x10 |[M:4/4] x8 |[M:3/4] x6 |] %18

